src/lib/packages/icons/src/assets/line/chat-check.svg

<svg width="24" height="24" viewBox="0 0 24 24" fill="none" xmlns="http://www.w3.org/2000/svg">
<path d="M4.0049 21.749C3.5479 21.749 3.10408 21.569 2.76809 21.233C2.29408 20.76 2.13108 20.073 2.34108 19.441L3.1819 16.94C3.2799 16.633 3.27102 16.325 3.15602 16.082C2.56402 14.809 2.25392 13.399 2.25392 11.999C2.25392 6.62402 6.62697 2.25 12.002 2.25C17.378 2.25 21.751 6.62302 21.751 11.999C21.751 12.37 21.7301 12.729 21.6861 13.089C21.6361 13.5 21.2741 13.79 20.8511 13.743C20.4401 13.693 20.147 13.319 20.198 12.908C20.234 12.608 20.252 12.308 20.252 11.999C20.252 7.45102 16.5519 3.75 12.0029 3.75C7.45495 3.75 3.7549 7.45002 3.7549 11.999C3.7549 13.182 4.01791 14.373 4.51491 15.443C4.79091 16.024 4.82713 16.723 4.61013 17.406L3.76613 19.917C3.72413 20.042 3.7881 20.131 3.8301 20.173C3.8721 20.215 3.96193 20.279 4.08693 20.237L6.58498 19.398C7.27898 19.177 7.97994 19.211 8.56594 19.492C9.62894 19.986 10.8199 20.249 12.0029 20.249C12.4169 20.249 12.7529 20.585 12.7529 20.999C12.7529 21.413 12.4169 21.749 12.0029 21.749C10.6029 21.749 9.194 21.438 7.928 20.849C7.68 20.731 7.371 20.722 7.053 20.824L4.56398 21.66C4.37798 21.719 4.1899 21.749 4.0049 21.749ZM18.197 21.53L21.53 18.197C21.823 17.904 21.823 17.429 21.53 17.136C21.237 16.843 20.762 16.843 20.469 17.136L17.666 19.939L16.5291 18.803C16.2361 18.51 15.761 18.51 15.468 18.803C15.175 19.096 15.175 19.571 15.468 19.864L17.135 21.531C17.281 21.677 17.4731 21.751 17.6651 21.751C17.8571 21.751 18.051 21.677 18.197 21.53Z" fill="currentColor"/>
</svg>

<svg xmlns="http://www.w3.org/2000/svg" width="24" height="24" fill="none"><path fill="currentColor" d="M4.005 21.749c-.457 0-.9-.18-1.237-.516a1.743 1.743 0 0 1-.427-1.792l.84-2.501c.099-.307.09-.615-.025-.858a9.74 9.74 0 0 1-.902-4.083c0-5.375 4.373-9.749 9.748-9.749 5.376 0 9.749 4.373 9.749 9.749 0 .371-.02.73-.065 1.09a.749.749 0 1 1-1.488-.181c.036-.3.054-.6.054-.909 0-4.548-3.7-8.249-8.25-8.249-4.547 0-8.247 3.7-8.247 8.249a8.23 8.23 0 0 0 .76 3.444c.276.581.312 1.28.095 1.963l-.844 2.511a.242.242 0 0 0 .064.256.243.243 0 0 0 .257.064l2.498-.839c.694-.221 1.395-.187 1.98.094a8.218 8.218 0 0 0 3.438.757.75.75 0 0 1 0 1.5c-1.4 0-2.809-.311-4.075-.9-.248-.118-.557-.127-.875-.025l-2.489.836a1.849 1.849 0 0 1-.56.089Zm14.192-.219 3.333-3.333a.75.75 0 1 0-1.061-1.061l-2.803 2.803-1.137-1.136a.75.75 0 0 0-1.061 1.061l1.667 1.667a.748.748 0 0 0 1.062-.001Z"/></svg>
